src/assets/icons/asunto.svg

<svg width="448" height="384" viewBox="0 0 448 384" fill="none" xmlns="http://www.w3.org/2000/svg">
<path d="M447.66 204.7L415.66 52.89C409.48 19.77 385.68 0 352 0H96.0001C79.2001 0 65.0001 4.69 53.9001 13.94C42.8001 23.19 35.5301 36.25 32.3201 52.83L0.320078 204.7C0.103884 205.787 -0.00331405 206.892 7.80393e-05 208V320C7.80393e-05 336.974 6.74292 353.252 18.7452 365.255C30.7476 377.257 47.0262 384 64.0001 384H384C400.974 384 417.253 377.257 429.255 365.255C441.257 353.252 448 336.974 448 320V208C447.997 206.891 447.883 205.786 447.66 204.7ZM63.6601 59.3V59.02C67.2101 40.59 77.4701 32.02 95.9501 32.02H352C370.61 32.02 380.87 40.57 384.27 58.93C384.27 59.06 384.32 59.19 384.34 59.32L411.27 187.2C411.392 187.783 411.383 188.385 411.242 188.964C411.102 189.542 410.834 190.082 410.458 190.544C410.083 191.006 409.609 191.378 409.071 191.633C408.533 191.889 407.945 192.021 407.35 192.02H288C283.781 191.999 279.727 193.653 276.727 196.619C273.726 199.585 272.027 203.621 272 207.84C272 220.57 266.943 232.779 257.941 241.781C248.939 250.783 236.73 255.84 224 255.84C211.27 255.84 199.061 250.783 190.059 241.781C181.057 232.779 176 220.57 176 207.84C175.99 205.749 175.567 203.681 174.758 201.754C173.948 199.826 172.766 198.077 171.281 196.606C169.795 195.135 168.034 193.972 166.099 193.181C164.163 192.391 162.091 191.989 160 192H40.6501C40.0548 192.001 39.4668 191.869 38.9291 191.613C38.3914 191.358 37.9174 190.986 37.5418 190.524C37.1662 190.062 36.8985 189.522 36.758 188.944C36.6176 188.365 36.608 187.763 36.7301 187.18L63.6601 59.3Z" fill="black"/>
</svg>

<svg xmlns="http://www.w3.org/2000/svg" fill="none" viewBox="0 0 448 384"><path fill="#000" d="m447.7 204.7-32-151.8A61.1 61.1 0 0 0 352 0H96C79.2 0 65 4.7 53.9 14a65 65 0 0 0-21.6 38.8L.3 204.7c-.2 1-.3 2.2-.3 3.3v112a64 64 0 0 0 64 64h320a64 64 0 0 0 64-64V208l-.3-3.3ZM63.7 59.3V59C67.2 40.6 77.5 32 96 32h256c18.6 0 28.9 8.6 32.3 27v.3l27 127.9a4 4 0 0 1-4 4.8H288a16 16 0 0 0-16 15.8 48 48 0 0 1-96 0 16 16 0 0 0-16-15.8H40.7a4 4 0 0 1-4-4.8l27-127.9Z"/></svg>
